X: 3
T: Reel des Colons
O: rep. de Bernard Morin
R: reel
M: C|
L: 1/8
K: Emix
"E"e2{g}fe befe | "D"defg g/a3/fd |"E"e2{g}fe befe | "Bm"dB{c}BA "D"Bdef|
"E"e2{g}fe befe | "D"defg g/a3/-af |{g}fded "Bm"edBc | "D"dBAF GE {F}ED :|
K: Edor
|:"Em"EFGA BE {F}ED | EFGB "D"AD {F}ED |"Em"EFGA BBGB | "D"AFAd "Bm"BE {F}ED|
"Em"EFGA BE {F}ED |EFGB "D"AD {F}ED |"Em"EFGA "G"BBGB | "D"AFAd BE {F}ED:|]
%%text Final ending -- replace last line with this:
"Em"EFGA BE {F}ED |EFGB  "D"Az3|{g}fded "Bm"edBc | "D"dBAF ^GE {F}ED|"E"E8|]

